X:1
T:Title
%%score { ( 1 3 5 ) | ( 2 4 ) }
L:1/8
Q:1/4=112
M:4/4
K:Ab
V:1 treble nm="Grand Piano"
V:3 treble 
V:5 treble 
V:2 bass 
V:4 bass 
V:1
 [Ec]4 [D_c]2 [E=c]2 | [CA]4 [CE]4 | [CF]2 [CA]2 [CF]2 [CA]2 | [DG]6 z2 | [Ed]4 [Ec]2 [Ed]2 | %5
w: I.~H.~Meredith * *|||||
 [DB]4 [DG]4 | [DF]2 [DE]2 [DG]2 [_CF]2 | [CE]6 z2 | [Ec]4 [=D_c]2 [E=c]2 | [CA]4 [CE]4 | %10
w: |||||
 [CF]2 [CA]2 [CF]2 [_CA]2 | [B,G]6 z2 | [GB]4 [_G=A]2 [=GB]2 | [Ac]2 [GB]2 G4 | %14
w: ||||
 [=DB]2 [E=A]2 [F_A]2 [DF]2 |[M:5/4] z4 d6 |[M:4/4] [Ec]4 [Ac]4 | [ce]6 z2 | %18
w: ||||
 [Fd]2 [Bd]2 [Ad]2 [Fd]2 | [Ec]6 z2 | [Bd]4 [Ed]4 | [Ac]6 z2 | [B=d]2 [Ad]2 [Gd]2 [Ad]2 | %23
w: |||||
 [ce]2 [Be]2 [Ge]2 [Fe]2 | [Ec]4 [Ac]4 | [ce]6 z2 | [=Af]2 [Ff]2 [Af]2 [cf]2 | [e_g]4 [df]4 | %28
w: |||||
 [Fd]4 [Af]4 | [Ec]6 z2 | [B=d]2 [Fd]2 [G_d]2 [Bd]2 | [Ac]6 z2 |] %32
w: ||||
V:2
 A,,2 E,2 A,2 E,2 | A,,2 E,2 A,2 E,2 | A,,2 E,2 A,2 E,2 | B,,2 E,2 B,2 E,2 | E,,2 E,2 G,2 E,2 | %5
 E,,2 E,2 B,2 E,2 | E,,2 E,2 B,2 E,2 | A,,2 E,2 A,2 E,2 | A,,2 E,2 A,2 E,2 | A,,2 E,2 A,2 E,2 | %10
 A,,2 E,2 A,2 E,2 | B,,2 E,2 G,2 E,2 | E,,2 B,2 C2 B,2 | E,,2 B,2 E2 B,2 | %14
 [B,,F,]2 [C,F,]2 [=D,B,]2 [B,,A,]2 |[M:5/4] E,4- [E,B,]6 | %16
[M:4/4] A,,2 E,2 [E,A,C]2 z[K:treble] B | A,,2 E,2 E,2 [E,A,C]2 | D,,2 [F,A,D]2 [F,A,D]2 [F,A,D]2 | %19
 A,,2 E,2 E,2 E,2 | E,,2 E,2 [E,G,D]2 z[K:treble] B | F,,2 F,2 F,2 [F,A,C]2 | %22
 B,,2 [F,B,=D]2 [F,B,D]2 [F,B,D]2 | E,,2 [E,G,D]2 [E,G,D]2 [E,G,C]2 | %24
 A,,2 E,2 [E,A,C]2 z[K:treble] B | A,,2 E,2 A,2 [G,C]2 | F,,2 [F,=A,E]2 [F,A,E]2 [F,A,E]2 | %27
 B,,2 F,2 [F,B,D]2 F,2 | z4 z2 [F,A,]2 | A,,2 E,2 E,2 [E,A,C]2 | B,,2 [F,B,=D]2 E,,2 [E,G,_D]2 | %31
 [A,,A,]2 E,2 A,,2 z2 |] %32
V:3
 x8 | x8 | x8 | x8 | x8 | x8 | x8 | x8 | x8 | x8 | x8 | x8 | x8 | x8 | x8 |[M:5/4] E2- E2- E6 | %16
[M:4/4] z2 [A,C]2 z2 z d | z2 [A,C]2 [A,C]2 [Ac]2 | x8 | z2 [A,C]2 [A,C]2 [A,C]2 | %20
 z2 [G,D]2 z2 z d | z2 [A,C]2 [A,C]2 [ce]2 | x8 | x8 | z2 [A,C]2 z2 z d | z2 [A,C]2 [CE]2 [B=e]2 | %26
 x8 | z2 [B,D]2 z2 [B,D]2 | z2 [A,D]2 z2 z d | z2 [A,C]2 [A,C]2 [ce]2 | x8 | x8 |] %32
V:4
 x8 | x8 | x8 | x8 | x8 | x8 | x8 | x8 | x8 | x8 | x8 | x8 | x8 | x8 | x8 |[M:5/4] G,4 z2 z4 | %16
[M:4/4] z4 z2 [E,A,]2[K:treble] | x8 | x8 | x8 | z4 z2 [E,G,]2[K:treble] | x8 | x8 | x8 | %24
 z4 z2 [E,A,]2[K:treble] | x8 | x8 | x8 | D,,2 F,2 [F,A,D]2 z F | x8 | x8 | x8 |] %32
V:5
 x8 | x8 | x8 | x8 | x8 | x8 | x8 | x8 | x8 | x8 | x8 | x8 | x8 | x8 | x8 |[M:5/4] x10 | %16
[M:4/4] z4 z2 C2 | x8 | x8 | x8 | z4 z2 D2 | x8 | x8 | x8 | z4 z2 C2 | x8 | x8 | x8 | z4 z2 D2 | %29
 x8 | x8 | x8 |] %32

